X:135
T: Mick O'Connor's
C: BB
R: jig
Q: 1/8=320
M: 6/8
L: 1/8
K: A
D|"A"EAA cAA|"A"eAA cAA|"D"fdf "A"ecA|"Bm"Bcd "E"BGE|
"A"EAA cAA|"A"eAA cAA|"Bm"fdB "D"FAd|"E"BGB "A"A2 :|
e|"A"aga ecA|"A"Ace aec|"Bm"dBB "G"=gBB|"E"bag ef^g|
"A"aAA eAA|"F#m"efe ecA|"A"EAc "D"dcd|"E"BAG "A"A2 :|
